assets/imgs/envelope.svg

<svg width="24" height="17" viewBox="0 0 24 17" fill="none" xmlns="http://www.w3.org/2000/svg">
<path d="M19.7728 3.8433L12.0008 10.6919L4.2272 3.8432C3.91767 3.5705 3.44586 3.60047 3.17326 3.9098C2.90077 4.21923 2.93044 4.69105 3.23997 4.96374L11.5073 12.2474C11.6484 12.3717 11.8247 12.4338 12.0009 12.4338C12.1772 12.4338 12.3536 12.3717 12.4947 12.2473L20.7603 4.96364C21.0696 4.69105 21.0994 4.21913 20.8268 3.9097C20.554 3.60057 20.0823 3.5707 19.7728 3.8433Z" fill="#5F712D"/>
<path d="M21.7599 0.669922H2.2401C1.00496 0.669922 0 1.67478 0 2.91002V14.7578C0 15.9931 1.00496 16.9979 2.2401 16.9979H21.7599C22.995 16.9979 24 15.9931 24 14.7578V2.91002C24 1.67488 22.995 0.669922 21.7599 0.669922ZM22.5066 14.7578C22.5066 15.1695 22.1717 15.5045 21.7599 15.5045H2.2401C1.82832 15.5045 1.4934 15.1695 1.4934 14.7578V2.91002C1.4934 2.49834 1.82832 2.16332 2.2401 2.16332H21.7599C22.1717 2.16332 22.5066 2.49834 22.5066 2.91002V14.7578Z" fill="#5F712D"/>
</svg>

<svg width="24" height="17" fill="none" xmlns="http://www.w3.org/2000/svg"><path d="M19.773 3.843L12 10.692 4.227 3.843a.747.747 0 10-.987 1.12l8.267 7.284a.745.745 0 00.988 0l8.265-7.283a.747.747 0 00-.987-1.12z" fill="#5F712D"/><path d="M21.76.67H2.24A2.243 2.243 0 000 2.91v11.848a2.243 2.243 0 002.24 2.24h19.52a2.243 2.243 0 002.24-2.24V2.91A2.243 2.243 0 0021.76.67zm.747 14.088a.748.748 0 01-.747.747H2.24a.748.748 0 01-.747-.747V2.91c0-.412.335-.747.747-.747h19.52c.412 0 .747.335.747.747v11.848z" fill="#5F712D"/></svg>
